X:109
T:Valse
R:Waltz
O:France
M:3/4
K:C
G2c2d2|e3d ef|e3d ef|e6|\
g2f2e2|d4g2|d3c de|c6-|c2B2A2::\
d2e2f2|g3fg2|a2g2f2|e6\
|1 e2d2e2|g2f2e2|d3c de|d6-|d6:|2\
d2e2f2|e6|d2e2d2|c6-|c6||
